X:501
T:Whitewater
C:Mike Marshall
N:Transcribed bySteve Keating
R:bluegrass
L:1/8
Q:1/4=290
M:4/4
K:A
z8 | "First break""A"z2 d/e/e ee z2 | ed z2 dc A2 | z2 d/e/e ee z2 | dc A2 [ee]e ee | 
z2 [ed]e ee z2 | [e^d]d zA =dA =c^c | Ac A=G AG ED | "E"CE DC "A"A,2 de | ze zA eA ee | 
dA zd zA =c^c | A=G EG AB cd | ^de =ge ga ze | z2 de ee z2 | ed =cB A=G c^c | 
Ac B=G AG ED | "E"CE DC "A"A,2 A,A, | A,2 A,B, CD EC | "D"DE =F/^F/A zB cA | "A"Bc AB AE AF | 
"E"ED EE "A"zE dE | E=c ^c2 B2 z=G | "D"A=G FE DE FG | "A"AA B2 A=G EG | "E"=GA zA "A"zB cd | 
^de f=g ^ga za | "D"zA aA Aa zA | "A"a2 Aa zA a2 | "E"ze =g^g "A"ed ed | cA Bc AB A=G | 
"D"A=G FE DE FG | "A"AB cd ed cB | "E"[e4A4] "A"[A4E4A,4] | z8 | "Second break"z2 [e2A2] z2 [e2d2] | 
ze zA =c^c A2 | z2 d/e/e ze d2 | dc A2 [ee][ee] [ee]e | zd ez ee ea | e^d ed =dA =c^c | 
Ac A=G AG ED | CE DC A,2 [ed]e | ze ze ee ee | e=g e^d ed =dA | =c^c Ac A=G AG | 
E=G AB cd ^de | =g^g ae =g^g ae | =g^g ae =g^g ae | =g^g ae g=g eg | ed ed c=c A2 | 
z2 AB =cB A2 | z2 AB =cB A2 | AB =cB A2 AB | =cB AB AB AB | AB AB AB AB | AB AB =c2 Bc | 
dA =cd ec de | =gd eg ae ga | a[bA] Aa AA =gA | Aa AA =c'A Ab | AA =c'A A^c' AA | 
d'A A=c' AA d'A | A^d' e'f' e'A Ac' | AA e'f' a'f' AA | =g'A Af' AA e'A | Af' e'2 =c'/^c'/z e'2 | 
a8 | z8 | z8 | z8 | 


